X:1
T:Title
%%score { ( 1 2 5 ) | ( 3 4 ) }
L:1/8
M:4/4
K:Eb
V:1 treble nm="Grand Piano"
V:2 treble 
V:5 treble 
V:3 bass 
V:4 bass 
V:1
 z4 z2[Q:1/4=100] z F | G2 G2 G3 [FA] | [GB]2 [Ac]2 [GB]3 [EG] | [EG]2 [DF]2 [DF]2 [B,EG]2 | %4
 [B,FA]6 [B,DF]2 | [B,EG]2 [B,EG]2 [_DGB]3 [DEG] | [CEA]2 [CEA]2 [EAc]3 [EAc] | %7
 [EGB]2 [FA]G [B,EG]2 [A,DF]2 | [G,E]6 [B,EG]2 | [B,DF]2 [Dc]2 [EB]3 [FA] | [FA]2 G2 G3 G | %11
 F2 [Fe]2 [Fd]3 [Ec] | [B,DB]6 [B,FA]2 | [B,EG]2 [B,EG]2 [_DGB]3 [DEG] | %14
[M:9/8] [CEA]2 [CEA]- [CEA] [EAc]2- [EAc] [EAc]2 |[M:4/4] [EGB]2 [FA]G [B,EG]2 [A,DF]2 | %16
[M:3/4] [G,E]6 |[M:11/32] [GB]/4-[GB]/4-[GB]/4-[GB]/4-[GB]/4-[GB]/4-[GB]/-<[GB]/ z/4 | %18
[M:4/4] (5:4:4[B,EG]2- [B,EG]/ [B,EG][B,EG]3/2 z2 (3:2:2[B,GB]2 [B,EG] | [FA]6- [FA]/4 z/4 z/ z | %20
 (9:8:8[FA]2 [FA]2 [FA]/ [FA]/-[FA]3/2[Ac]/-[Ac]3/2[GB]/ | %21
 (9:8:8[EG]2- [B,E-G-]2 [B,E-G-]/ [B,EG]/-[B,E-G]3/2[EG-]/G3/2[FA]/ | z4 [Ge]2- [Ge]/4 z/4 z/ z | %23
 z4 c2- c/4 z/4 z/ z | (5:4:4[EGB]2- [EGB]/ [FA]G3/2 z4 |[M:3/4] [G,E]6 |] %26
V:2
 z4 z2 E2 | x8 | x8 | x8 | x8 | x8 | x8 | x8 | x8 | x8 | x8 | x8 | x8 | x8 |[M:9/8] x9 | %15
[M:4/4] x8 |[M:3/4] x6 |[M:11/32] B,/4-B,/4-B,/4-B,/4-B,/-<B,/[B,FA]3/4 | %18
[M:4/4] z4 [B,EG]2- [B,EG]/4 z/4 z/ z | (7:8:6B,3/2B,3/2.B,/ B,3/2[DF][EG] | x481/60 | x481/60 | %22
 (5:4:5[GB]2 [GB]/ [GB]/-[GB]3/2[GB]/ z2 (3:2:2G2 G | (5:4:5A2 A/ A/-A3/2A/ z2 (3:2:2[EAc]2 [EAc] | %24
 z4 [B,EG]2- [B,EG]/4 z/4 z/ z |[M:3/4] x6 |] %26
V:3
 z4 z2 G,A, | [E,B,E]2 [E,B,E]2 [E,B,E]3 [E,B,] | [E,E]2 [E,E]2 [E,E]3 [E,B,] | %3
 [B,,B,]2 [B,,B,]2 B,,2 B,,2 | B,,6 B,,2 | E,2 E,2 E,3 E, | A,,2 A,,2 A,,3 A,, | z2 [B,,B,]2 z4 | %8
 E,6 E,2 | B,,2 [B,,A,]2 [B,,G,]3 [D,B,] | [E,B,]2 [E,B,E]2 [E,B,E]3 [E,B,E] | %11
 [D,B,]2 [C,=A,]2 [F,B,]3 [F,A,] | B,,6 D,2 | E,2 E,2 E,3 E, |[M:9/8] A,2 A,- A, A,2- A, A,,2 | %15
[M:4/4] z2 [B,,B,]2 z4 |[M:3/4] E,6 |[M:11/32] E,/4-E,/4-E,/4-E,/4-E,/-<E,/E,3/4 | %18
[M:4/4] (5:4:4E,2- E,/ E,E,3/2 z2 (3:2:2E,2 E, | (7:8:6B,,3/2B,,3/2.B,,/ B,,3/2[B,,B,][B,,B,] | %20
 (9:8:8[B,,B,]2 [B,,B,]2 [B,,B,]/ [B,,B,]/-[B,,B,]3/2[B,,B,]/-[B,,B,]3/2[B,,B,]/ | %21
 (9:8:8[E,B,]2 E,2 E,/ E,/-E,3/2[E,B,E]/-[E,B,E]3/2[E,B,]/ | %22
 (5:4:5[E,E]2 [E,E]/ [E,E]/-[E,E]3/2[E,E]/ z2 (3:2:2[E,_DE]2 [E,DE] | %23
 z4 [A,EA]2- [A,EA]/4 z/4 z/ z | (5:4:4B,,2- B,,/ [B,,B,]-[B,,B,E]3/2 B,,2 z2 |[M:3/4] E,6 |] %26
V:4
 z4 z2 E,2 | x8 | x8 | x8 | x8 | x8 | x8 | B,,2 z E B,,2 B,,2 | x8 | x8 | x8 | x8 | x8 | x8 | %14
[M:9/8] x9 |[M:4/4] B,,2 z E B,,2 B,,2 |[M:3/4] x6 |[M:11/32] x11/4 | %18
[M:4/4] z4 E,2- E,/4 z/4 z/ z | x8 | x481/60 | x481/60 | z4 [E,B,]2- [E,B,]/4 z/4 z/ z | %23
 (5:4:5[A,CE]2 [A,CE]/ [A,CE]/-[A,CE]3/2[A,CE]/ z2 (3:2:2A,,2 A,, | z4 z2 B,,2- | %25
[M:3/4] B,,3/4 z/4 z z2 z2 |] %26
V:5
 x8 | x8 | x8 | x8 | x8 | x8 | x8 | x8 | x8 | x8 | x8 | x8 | x8 | x8 |[M:9/8] x9 |[M:4/4] x8 | %16
[M:3/4] x6 |[M:11/32] x11/4 |[M:4/4] x8 | x8 | x481/60 | x481/60 | x8 | x8 | z4 z2 [A,DF]2- | %25
[M:3/4] [A,DF]3/4 z/4 z z2 z2 |] %26

